DVA
CUT[Z' nachst bin i spat aussiganga
    und wollt' ma a Vogerl fanga]
REG[Europa, Mitteleuropa, Deutschland, Niederbayern, Weitmichel]
KEY[D0136  08  G 3/4]
MEL[-5_  1_.11_  3_3_2_  1_0_
    -3_  3_.33_  5_5_4_  3_0_
    11  6_.666  +1_7_6_  5_.55_  +1_
    5_3_  4_.45_  7_.65_  3_0_
    11  6_.666  +1_7_6_  5_.55_  +1_
    5_3_  4_.45_  7_.65_  3_0_ //] >>
FCT[Kilt - Lied]
CMT[Inzipit = Variante zum Lied]
